client/src/assets/images/Rank1.svg

<svg xmlns="http://www.w3.org/2000/svg" width="33" height="32" fill="none"><path stroke="#4B3F28" d="M7.5 12h2m14 0h2m-16 1h2m10 0h2m-12 1h2m-2 0h2m6 0h2m-6 2h2m-4-1h2m2 0h2m-12 1h2m14 0h2m-16 1h2m10 0h2m-12 1h2m-2 0h2m6 0h2m-6 2h2m-4-1h2m2 0h2M7 12.5v3m19-3v3"/><path fill="#FFDA57" d="M25.5 12.5h-2v3h2v-3Zm-12 2h-2v3h2v-3Z"/><path fill="#FEBB38" d="M9.5 12.5h-2v3h2v-3Zm6 3h-2v3h2v-3Z"/><path fill="#F8AF23" d="M16.5 16.5h-1v3h1v-3Z"/><path fill="#FEBB38" d="M11.5 13.5h-1v3h1v-3Z"/><path fill="#FFDA57" d="M10.5 13.5h-1v3h1v-3Zm12 0h-1v3h1v-3Zm-5 3h-1v3h1v-3Z"/><path fill="#FFEAA0" d="M23.5 13.5h-1v3h1v-3Zm-2 1h-1v3h1v-3Z"/><path fill="#FFFBEE" d="M20.5 14.5h-1v3h1v-3Z"/><path fill="#FFFBEE" d="M20.5 14.5h-1v3h1v-3Z"/><path fill="#FFF7DB" d="M19.5 15.5h-2v3h2v-3Z"/></svg>

<svg width="33" height="32" viewBox="0 0 33 32" fill="none" xmlns="http://www.w3.org/2000/svg">
<path d="M7.5 12H9.5" stroke="#4B3F28"/>
<path d="M23.5 12H25.5" stroke="#4B3F28"/>
<path d="M9.5 13H11.5" stroke="#4B3F28"/>
<path d="M21.5 13H23.5" stroke="#4B3F28"/>
<path d="M11.5 14H13.5" stroke="#4B3F28"/>
<path d="M11.5 14H13.5" stroke="#4B3F28"/>
<path d="M19.5 14H21.5" stroke="#4B3F28"/>
<path d="M15.5 16H17.5" stroke="#4B3F28"/>
<path d="M13.5 15H15.5" stroke="#4B3F28"/>
<path d="M17.5 15H19.5" stroke="#4B3F28"/>
<path d="M7.5 16H9.5" stroke="#4B3F28"/>
<path d="M23.5 16H25.5" stroke="#4B3F28"/>
<path d="M9.5 17H11.5" stroke="#4B3F28"/>
<path d="M21.5 17H23.5" stroke="#4B3F28"/>
<path d="M11.5 18H13.5" stroke="#4B3F28"/>
<path d="M11.5 18H13.5" stroke="#4B3F28"/>
<path d="M19.5 18H21.5" stroke="#4B3F28"/>
<path d="M15.5 20H17.5" stroke="#4B3F28"/>
<path d="M13.5 19H15.5" stroke="#4B3F28"/>
<path d="M17.5 19H19.5" stroke="#4B3F28"/>
<path d="M7 12.5V15.5" stroke="#4B3F28"/>
<path d="M26 12.5V15.5" stroke="#4B3F28"/>
<path d="M25.5 12.5H23.5V15.5H25.5V12.5Z" fill="#FFDA57"/>
<path d="M13.5 14.5H11.5V17.5H13.5V14.5Z" fill="#FFDA57"/>
<path d="M9.5 12.5H7.5V15.5H9.5V12.5Z" fill="#FEBB38"/>
<path d="M15.5 15.5H13.5V18.5H15.5V15.5Z" fill="#FEBB38"/>
<path d="M16.5 16.5H15.5V19.5H16.5V16.5Z" fill="#F8AF23"/>
<path d="M11.5 13.5H10.5V16.5H11.5V13.5Z" fill="#FEBB38"/>
<path d="M10.5 13.5H9.5V16.5H10.5V13.5Z" fill="#FFDA57"/>
<path d="M22.5 13.5H21.5V16.5H22.5V13.5Z" fill="#FFDA57"/>
<path d="M17.5 16.5H16.5V19.5H17.5V16.5Z" fill="#FFDA57"/>
<path d="M23.5 13.5H22.5V16.5H23.5V15V13.5Z" fill="#FFEAA0"/>
<path d="M21.5 14.5H20.5V17.5H21.5V16V14.5Z" fill="#FFEAA0"/>
<path d="M20.5 14.5H19.5V17.5H20.5V16V14.5Z" fill="#FFFBEE"/>
<path d="M20.5 14.5H19.5V17.5H20.5V16V14.5Z" fill="#FFFBEE"/>
<path d="M19.5 15.5H17.5V18.5H19.5V17V15.5Z" fill="#FFF7DB"/>
</svg>
